X:1
T:O del Cielo
T:O del Cielo
T:Ludovico Bellanda Veronese
T:Source : Musische di L.Bellanda---Venetia---G.Vincenti---1607. Editor : André Vierendeels (30/06/15).
T:Notes : Original clefs : C4, F4 Figures in BC are notated in original print Lyrics by Alberto Fabriani 
C:Ludovico Bellanda Veronese
%%score 1 2
L:1/8
Q:1/4=70
M:4/4
K:F
V:1 treble-8 nm="Tenor" snm="T"
V:2 bass nm="BC" snm="BC"
V:1
 z2 FF c2 cB | c8 | z2 dd d2 BA | B2 G4 ^FG | A3 G A4 | z AFE E2 z2 | z A>AF ED E2 | D8 | F4 ^F4 | %9
w: O del Cie- lo d'A-|mor,|O di que- sto mio|cor lu- ce fa-|ta- * le,|co- me spa- rir,|co- me fug- gir po- te-|sti,|ahi, _|
 G4 ^G4 | A2 A3 A G2 | =B4 BcBA | ^G4 z A=Bc | d3 d ^c4 | =B8 | z2 ^FF G4 | =B6 dG | =B4 z2 z G | %18
w: ahi, _|che gl'oc- chi fu-|ne- sti, si strug- ge-|ran nel di- spe-|tra- t'ot- to-|re,|io mor- ro|ti si mor-|ro, mor-|
 EFGA G4 | F4 z2 EE | E2 FG A/E/F/G/ A/G/F/E/ | D/E/F/G/ A/B/c/d/ e2 ef | edcB c2 z2 | B4 z2 D2 | %24
w: ro se te non mi-|ro, che gia|fiu- ma vo- lan- * * * * * * *|* * * * * * * * * te, di|cu- pi- do so- spi-|ro, con-|
 E2 F2 G3 F | F2 F2 z2 A2 | B2 c2 d3 A | A2 c2 c4- | c2 B2 A4 | G2 F2 F4- | F2 _E2 D4 | C8 | %32
w: du- ce'à te cor|mi- o, con-|du- ce'à te cor|mio- lo spir-|* to'a- ma-|te, lo spir-|* to'a- ma-|te,|
 z4 c4- | c2 cc ^c4 | d6 BG | DG z2 _e4- | e4 d4- | d4 c4 | A8 |[M:3/4] D3 D D2 | D4 D2 | F3 F F2 | %42
w: on-|* de ri- man-|go(ahi- fug- gi-|ti- va, ahi|_ cru-||da),|om- bra so-|lin- ga,|om- bra so-|
 F2 F2 F2 | F2 F2 F2 |[M:4/4] F8 | F8 |] %46
w: lin- ga'e cie-|ca lar- va'i-|gnu-|da.|
V:2
 F,,8 | F,,8 | B,,8 | G,,8 | D,8 |"^#" D,4 A,,4 |"^#" A,,8 | D,8 | D,2 C,2 =B,,2 A,,2 | %9
 G,,2 F,,2 E,,4 | A,,8 |"^#3" E,8 |"^#" E,4 C,4 |"^#5" =B,,4 ^F,4 |"^-natural10" =B,,8 | D,4 G,,4 | %16
 G,4 G,,4- | G,,4 G,,4 | C,8 |"^#" F,,4 A,,4 |"^#" A,,8 | B,,4 A,,4 | G,,4 F,,4 | %23
 B,,2 G,,2 A,,2 B,,2 |"^6" C,2 D,2 B,,2 C,2 | F,,2 D,2 E,2 F,2 | G,2 A,,2 B,,2 C,2 | D,4 C,4 | %28
"^#" D,8 | G,,4 F,,4 |"^-natural" G,,8 | C,8 | C,6 B,,2 |"^#" A,,2 G,,2 A,,4 | ^F,,4 G,,4- | %35
 G,,4 C,4 | _E,8- | E,8 |"^#" D,8 |[M:3/4] B,,3 A,, G,,2 | ^F,,4 G,,2 | D,3 C, B,,2 | A,,2 D,3 C, | %43
 B,,2 A,,2 B,,2 |[M:4/4] F,,8 | F,,8 |] %46

